media/theme/theme-3/space.svg

<svg fill="none" height="19" viewBox="0 0 118 19" width="118" xmlns="http://www.w3.org/2000/svg"><path clip-rule="evenodd" d="m58.5867 3.20215c.5583-.01507 1.1157.0569 1.6532.21349.115.1955.254.37488.4133.5337.0715 2.10281-1.0365 1.57786-1.1366 3.20225 1.6354 1.7939 1.6928-.47425 1.9633-1.92135.4521-.29791.7219-.58281 1.4465-.64045.1994.16289.5038.15809.7233.32023l.5167.74719c.0135.37082.0345.85735-.1033 1.06742-.1638.54171-.496.61835-.8267.96067h-1.5499c-.2686.41202-.4856.45899-.5166 1.17416.3471.20131.5476.31104 1.1366.32022.5093-.57992 1.0376-1.24001 2.0665-1.2809.1539.11161.3308.1847.5167.21349l.6199.74719c.0464 1.02739-.0092 1.78034-.7233 2.02804-.2455.2038-.5669.2195-1.0332.2135-.4811-.4967-1.1103-1.20476-1.9633-1.28087-.3862.31947-.5914.22417-.6199.96067.7977.776 1.2135.491 2.3765.7472.3743.577.6277.7518.62 1.8146-.3484.3701-.6752.7074-1.0333 1.0674h-.8266c-.3426-.3561-.8622-.5343-1.0333-1.0674-.2773-.864.2497-1.5833-.5166-1.9213-.6847-.517-1.2528.2615-1.24.9606.7351.8609 1.2546 1.5871.93 2.9888-.479.3101-1.4041.8276-2.0666.3202-.3627-.127-.3854-.3029-.6199-.5337-.0229-.4983-.1539-.9037.1033-1.2809.1571-.4824.6935-.9607 1.0333-1.2809-.0345-.3558-.0689-.7116-.1033-1.0674-.3031-.1425-.5173-.2621-.93-.3202l-.62.6404c-.3855.894.1714 1.868-.7233 2.2416-.2539.3193-.6547.3366-1.2399.3202-.3582-.3599-.6847-.6974-1.0333-1.0674v-.9607c.8783-.9727 1.0114-1.0486 2.5832-1.0674.2596-.3998.4108-.4339.4133-1.1741l-.3099-.1068c-.1959-.16234-.371-.19095-.7233-.21347-.4811.49677-1.1103 1.20477-1.9633 1.28087-.1041-.0739-.4133-.1373-.5166-.2135-.4856-.172-.521-.5203-.8266-.8539-.0599-1.574.4398-2.08967 1.9632-2.02808.3349.44939.8639.76086 1.2399 1.17416.8163.03299 1.1527-.09607 1.1366-.96067-.5436-.51236-1.5061-.55154-2.3765-.74719-.4663-.66105-1.1792-2.10281.1033-2.5618.2286-.22298.4999-.29365.93-.32023.4815.38577 1.0257.40509 1.2399 1.06742.402 1.24301-.3427 2.71049 1.5499 1.92135.1399-.31916.2046-.53915.2067-1.06742l-1.1366-1.2809c-.0149-.50046.0197-1.00118.1033-1.49438zm-39.7811 2.5618c3.123-.13791 5.838.163 8.2662.74719h1.6532l2.7899.32023c.708.19213 4.0957 1.44667 4.4431 1.38764.341-.05786.8196-.41213 1.1366-.53371 1.1421-.43817 2.3868-.74367 3.5131-1.06742 2.0741-.59625 5.6754-1.16892 8.3695-.85393.9185.10738 3.1039.52741 3.9265.74719v.32023c.0458.28884-.079.87528-.62.96067-.8765-.71709-2.928-.53819-4.4431-.53371-3.4541.01068-6.5416 1.12079-9.0928 2.24158v.10674c1.4363.18925 4.283 1.48135 5.7864 1.92135 2.7858.8153 5.4077.2943 8.0595-.3202l.1033.2135c.1744.2258.282.6906.2067.8539l-.1033.3202c-.8155.1174-1.4373.441-2.2732.5337-1.9007.2109-5.1346.2911-6.7163-.1067-1.6187-.3913-3.1345-.7829-4.7531-1.1742-.8133-.2749-2.2948-.9001-3.0998-1.0674-1.1357.3891-2.2275.6618-3.3685 1.0646-1.109.2874-2.2803.3587-3.3478.5365-.7233 0-1.3433.1068-2.0666.1068-1.4802.3512-3.1445.7584-4.8564.7472-1.2885-.0085-2.8663.0221-3.7197 0-.7233-.0356-1.55-.0712-2.2733-.1068-2.5747-.3808-4.8675-1.0405-7.23288-1.8146-1.059-.3466-1.88924-.7899-3.09982-1.38763-.72598.36933-.89761.49933-1.65324 1.06743-.28457.3431.205.6693-.41331 1.2809-.25192.425-1.44835.4423-1.75657.2135-.54061-.4015-.5497-1.8406 0-2.2416.82414-.60128 1.7328.3194 2.89317-.74719-.42251-.21466-.83695-.51546-1.23993-.74719-.48099.04173-.87994.23856-1.54991.10674l-.51664-.64045c-.01002-.42956.02462-.85898.10333-1.2809l.72329-.64045c1.98223-.0285 1.24654.73652 1.85989 1.81461.39792.39377 1.07172.70246 1.75657.96067.55993-.29792 1.09062-.50094 1.65324-.74719 2.0277-.88756 4.35581-1.51392 6.71631-2.13483 1.4119-.17783 2.7264-.32193 4.2364-.42697zm50.4238-.10674c3.6979-.02733 6.8496.33261 9.7128 1.2809.5627.18637 3.3905 1.37526 3.8231 1.2809.372-.08113.8506-.38641 1.24-.53371 1.0332-.39121 1.5224-.48151 2.5831-.74719 1.2433-.31137 2.8197-.24241 4.4431-.42697 2.2591-.25682 6.5341-.98351 9.9195-.64045 3.096.31372 5.447.89012 7.026 1.38764.847.26686 2.386.90955 4.547 1.70787.699-.62978 1.58-.36292 1.55-1.81461.082-.10898.036-.02925.103-.21348.241-.21348.482-.42697.723-.64045 1.289-.04601 1.8.48407 1.757 1.81461-.273.26888-.566.57256-.827.85393-.457.01472-.912-.05765-1.343-.21348-.306.37455-.912.39878-1.137.85393.43.09948.823.32136 1.137.64045.348-.1035.933-.38897 1.343-.1067 1.527.4824.624 1.9213 0 2.5618-.804.039-1.342-.0658-1.55-.6405-.227-.2556-.221-.654-.206-1.1742-.746-.1942-.788-.3901-1.964-.8539-1.291.5942-2.536 1.0034-3.823 1.4944-4.8 1.8308-11.5232 2.3163-17.1521.9607h-1.7566l-2.5832-.3203c-1.1021-.3202-1.9977-.6404-3.0998-.9606-.217-.0836-.8093-.395-1.0333-.427-.4718-.0677-1.2543.4903-1.6532.6405-1.3143.4945-2.7001.8413-4.0298 1.1741-2.3379.5852-6.215.7579-8.8862.5337-1.074-.0902-2.4478-.3471-2.5832-.9607.0558-.1727.0905-.352.1034-.5337.048-.1521.1177-.296.2066-.4269 3.7685 1.2334 7.475.6201 10.8494-.5337.8089-.2766 2.2215-.77925 3.0998-1.17419-1.1205-.39858-2.2658-.85148-3.2031-1.17416-1.5969-.54972-3.3093-.84486-5.0631-1.06742-3.82-.48482-5.3627.56851-5.683.42697-.2605-.15606-.1544-.17687-.2583-.5194-.0506-.19865-.0083-.05135-.155-.54802.6686-.30535 1.3596-.5552 2.0666-.74719.5591-.14228.9816-.15541 1.7565-.21348zm-49.3905.85393c-.7909.00192-1.313.00662-1.9632.10674-1.0735.16524-2.6498.17474-3.6165.64045.3666.2533.4263.51525.4133 1.17416.6127.16428.8437.5304 1.5499.64045 1.1811-.92758 3.6765-1.47303 5.2697-1.92135.7217-.20281 1.8075-.31873 2.4799-.42696-1.2743-.0712-2.8589-.14229-4.1331-.21349zm76.1523.10674c-.336.03384-1.3971.1108-1.6532.21349 2.0066-.01484 5.0321.92406 6.613 1.60112.504.21573.895.53179 1.55.64045.327-.30709 1.041-.47489 1.136-.74719-.084-.45365.209-.8122.414-1.17416-.173 0-1.171-.21348-1.343-.21348-.972-.29578-4.7581-.32385-6.7168-.32023zm-51.8704.10675c-.965.22415-1.5085.35683-2.1698.5337-1.2173.32535-1.7681.47308-2.8932.85394-.6406.2169-1.6016.37092-2.1699.64045.0689 0 .3444.10674.4133.10674.4879.39686 1.209.00672 1.7566-.21349 1.1711-.47083 2.2118-.80408 3.5279-1.2255.7792-.24956 4.6054-.7806 5.3583-1.01607-.2067 0-3.6165.32023-3.8232.32023zm28.8284 0c.7493.47798 2.388.43764 3.3065.74719 1.4487.48845 3.1592 1.24108 4.4006 1.67787.0756-.06586.526-.24038.6624-.50372-.711-.08667-1.3556-.43603-1.9632-.64045-1.9219-.64685-4.1322-1.19977-6.4063-1.28089zm-47.8406.5337-2.7899.42697c-1.8635.53734-3.7555 1.02867-5.373 1.81461v.10674c.8191.36057 3.279 1.15365 4.8564 1.60115 3.4649.983 6.2452.2994 8.8862-.854.6808-.2972 1.427-.40867 1.9632-.85389-2.2575-1.05835-4.3178-2.19472-7.5429-2.24158zm66.5429 0c-.7309.11304-1.5328.38161-2.2732.64045-1.2176.42569-2.4934 1.03657-3.6165 1.60113v.10674c.6673.11411 1.1113.51235 1.6533.74715 1.3408.5724 2.7227 1.0363 4.1331 1.3877 2.0293.5084 6.5457-.9533 7.8529-1.4944.6889-.28522 1.4349-.30955 1.9629-.74719-2.7508-1.2444-5.8321-2.18297-9.7125-2.24158zm-61.5832.10675c.1055.08539.0283.03789.2067.10674-.1055-.0854-.0284-.0379-.2067-.10674zm.31.10674c.4811.38042 2.9719 1.44997 3.7198 1.49438.1853-.17826.4257-.25095.7233-.32023v-.10674c-1.4983-.18477-2.7204-.96067-4.4431-1.06741zm55.2802.32022c-1.1876.43487-.888.21978-2.0666.85393.069 0 .3975.25971.93.32023.9867-.27283 2.4172-1.11246 3.4098-1.38764v-.10674c-.1722 0-2.101.32022-2.2732.32022zm-73.1559-.21348c-1.3169.35054-4.3575 1.24162-5.373 1.92135 1.68816.86819 3.5846 1.62079 5.5797 1.92139-.3142-2.02963 1.4362-1.0068 2.4798-2.02813-.336-.07675-.5775-.36848-.8266-.42697-.6846-.16075-1.0593.44917-1.6532-.53371-.163-.24059-.0876-.60843 0-.85393zm93.2014 0c.121.34691.075.70577 0 1.06741-.241.17784-.483.35588-.723.53371-.717.22576-1.258-.58857-1.757.42697.315.08422.524.36377.723.42695.277.0881.475-.1887.62-.21347.325-.05518.549.14944.827.21347.259.42.528.7401.31 1.3877h.207c1.843-.603 3.891-1.1094 5.166-2.02813-1.016-.4718-1.269-.51685-1.86-.7472zm-46.8073.96067c-.2252.24231-.3896.2676-.5167.64045-.4736.65497.3505 1.45882.93 1.38762.6134-.0754.8849-.67608.8266-1.49436l-.62-.53371zm-22.9387.53371-.93.42697v.10674c.436.06927.7776.32022 1.0333.21348.3584-.06863.5779-.12008.7233-.42696-.3954-.05156-.5396-.17559-.8266-.32023zm46.394 0c-.1854.17826-.4257.25095-.7233.32023v.21348c.0689 0 .2411.21348.31.21348.2583.16417 1.0828.09607 1.3433-.42696-.41-.04569-.6341-.17474-.93-.32023zm-66.4396.85393c-.2625.22983-1.4503.53463-1.3432.96063.0943.6578-.2981.7733-.4133.9607 2.2754.4618 4.9287.8181 7.4395.6405.8507-.0602 1.7806-.1068 2.4799-.2135-1.7274-.0046-4.4513-1.0406-6.4063-1.7079-.5786-.1977-1.053-.5142-1.7566-.64043zm21.6988 0c-.1601.15243-.4003.22613-.62.32023v.1067c1.1883.1437 2.3366.7126 3.4099 1.0675.9816.3242 1.7374.4791 2.7898.7471.4887.1245 3.0172.5116 3.5131.2135-3.4345-.3729-6.8268-1.8687-9.0928-2.45503zm42.7776 0c-.9761.86763-3.8687 1.48773-5.2697 1.92133-.6428.199-1.552.0693-2.0666.427 2.1522.0285 4.2825-.7017 5.993-1.2809.7728-.2616 1.7037-.2693 2.2732-.7472-.325-.1589-.4555-.27753-.9299-.32023zm21.8022 0c-1.278.68013-3.6406 1.37533-5.1665 1.81463-.5683.1634-1.2909.3351-2.6865.5337 3.202.2207.9588.1067 4.3398.1067 1.0694 0 4.4262-.2549 5.3732-.6404-.111-.2842-.268-.8282-.414-1.0674-.398-.3932-.902-.6535-1.446-.74723zm-68.6096.10673c-.5205.4919-2.3177 1.193-3.0998 1.3877v.1067h.5167c1.0892-.7068 2.8578-.3736 3.8231-1.1742-.5104-.0747-.6727-.2655-1.24-.3202zm50.9405-.10673c-.1854.17823-.6324.35773-.93.42693.1055.0854.0284.0379.2067.1068.3996.3222 4.4719 1.5408 4.9597 1.2809-.9664-.3274-3.2004-1.4624-4.2364-1.81463zm-54.3503 1.60113c.1055.0854.0283.0379.2067.1067-.1055-.0854-.0283-.0379-.2067-.1067z" fill="#000" fill-rule="evenodd"/></svg>

<svg width="118" height="19" viewBox="0 0 118 19" fill="none" xmlns="http://www.w3.org/2000/svg">
<g id="&#226;&#128;&#148;Pngtree&#226;&#128;&#148;flower pattern decoration dividing line_17101563 1">
<path id="Color Fill 1" fill-rule="evenodd" clip-rule="evenodd" d="M58.5867 3.20215C59.145 3.18708 59.7024 3.25905 60.2399 3.41564C60.3549 3.61114 60.4939 3.79052 60.6532 3.94934C60.7247 6.05215 59.6167 5.5272 59.5166 7.15159C61.152 8.94549 61.2094 6.67734 61.4799 5.23024C61.932 4.93233 62.2018 4.64743 62.9264 4.58979C63.1258 4.75268 63.4302 4.74788 63.6497 4.91002L64.1664 5.65721C64.1799 6.02803 64.2009 6.51456 64.0631 6.72463C63.8993 7.26634 63.5671 7.34298 63.2364 7.6853H61.6865C61.4179 8.09732 61.2009 8.14429 61.1699 8.85946C61.517 9.06077 61.7175 9.1705 62.3065 9.17968C62.8158 8.59976 63.3441 7.93967 64.373 7.89878C64.5269 8.01039 64.7038 8.08348 64.8897 8.11227L65.5096 8.85946C65.556 9.88685 65.5004 10.6398 64.7863 10.8875C64.5408 11.0913 64.2194 11.107 63.7531 11.101C63.272 10.6043 62.6428 9.89624 61.7898 9.82013C61.4036 10.1396 61.1984 10.0443 61.1699 10.7808C61.9676 11.5568 62.3834 11.2718 63.5464 11.528C63.9207 12.105 64.1741 12.2798 64.1664 13.3426C63.818 13.7127 63.4912 14.05 63.1331 14.41H62.3065C61.9639 14.0539 61.4443 13.8757 61.2732 13.3426C60.9959 12.4786 61.5229 11.7593 60.7566 11.4213C60.0719 10.9043 59.5038 11.6828 59.5166 12.3819C60.2517 13.2428 60.7712 13.969 60.4466 15.3707C59.9676 15.6808 59.0425 16.1983 58.38 15.6909C58.0173 15.5639 57.9946 15.388 57.7601 15.1572C57.7372 14.6589 57.6062 14.2535 57.8634 13.8763C58.0205 13.3939 58.5569 12.9156 58.8967 12.5954C58.8622 12.2396 58.8278 11.8838 58.7934 11.528C58.4903 11.3855 58.2761 11.2659 57.8634 11.2078L57.2434 11.8482C56.8579 12.7422 57.4148 13.7162 56.5201 14.0898C56.2662 14.4091 55.8654 14.4264 55.2802 14.41C54.922 14.0501 54.5955 13.7126 54.2469 13.3426V12.3819C55.1252 11.4092 55.2583 11.3333 56.8301 11.3145C57.0897 10.9147 57.2409 10.8806 57.2434 10.1404L56.9335 10.0336C56.7376 9.87126 56.5625 9.84265 56.2102 9.82013C55.7291 10.3169 55.0999 11.0249 54.2469 11.101C54.1428 11.0271 53.8336 10.9637 53.7303 10.8875C53.2447 10.7155 53.2093 10.3672 52.9037 10.0336C52.8438 8.4596 53.3435 7.94393 54.8669 8.00552C55.2018 8.45491 55.7308 8.76638 56.1068 9.17968C56.9231 9.21267 57.2595 9.08361 57.2434 8.21901C56.6998 7.70665 55.7373 7.66747 54.8669 7.47182C54.4006 6.81077 53.6877 5.36901 54.9702 4.91002C55.1988 4.68704 55.4701 4.61637 55.9002 4.58979C56.3817 4.97556 56.9259 4.99488 57.1401 5.65721C57.5421 6.90022 56.7974 8.3677 58.69 7.57856C58.8299 7.2594 58.8946 7.03941 58.8967 6.51114L57.7601 5.23024C57.7452 4.72978 57.7798 4.22906 57.8634 3.73586L58.5867 3.20215ZM18.8056 5.76395C21.9286 5.62604 24.6436 5.92695 27.0718 6.51114H28.725L31.5149 6.83137C32.2229 7.0235 35.6106 8.27804 35.958 8.21901C36.299 8.16115 36.7776 7.80688 37.0946 7.6853C38.2367 7.24713 39.4814 6.94163 40.6077 6.61788C42.6818 6.02163 46.2831 5.44896 48.9772 5.76395C49.8957 5.87133 52.0811 6.29136 52.9037 6.51114V6.83137C52.9495 7.12021 52.8247 7.70665 52.2837 7.79204C51.4072 7.07495 49.3557 7.25385 47.8406 7.25833C44.3865 7.26901 41.299 8.37912 38.7478 9.49991V9.60665C40.1841 9.7959 43.0308 11.088 44.5342 11.528C47.32 12.3433 49.9419 11.8223 52.5937 11.2078L52.697 11.4213C52.8714 11.6471 52.979 12.1119 52.9037 12.2752L52.8004 12.5954C51.9849 12.7128 51.3631 13.0364 50.5272 13.1291C48.6265 13.34 45.3926 13.4202 43.8109 13.0224C42.1922 12.6311 40.6764 12.2395 39.0578 11.8482C38.2445 11.5733 36.763 10.9481 35.958 10.7808C34.8223 11.1699 33.7305 11.4426 32.5895 11.8454C31.4805 12.1328 30.3092 12.2041 29.2417 12.3819C28.5184 12.3819 27.8984 12.4887 27.1751 12.4887C25.6949 12.8399 24.0306 13.2471 22.3187 13.2359C21.0302 13.2274 19.4524 13.258 18.599 13.2359C17.8757 13.2003 17.049 13.1647 16.3257 13.1291C13.751 12.7483 11.4582 12.0886 9.09282 11.3145C8.03382 10.9679 7.20358 10.5246 5.993 9.92687C5.26702 10.2962 5.09539 10.4262 4.33976 10.9943C4.05519 11.3374 4.54476 11.6636 3.92645 12.2752C3.67453 12.7002 2.4781 12.7175 2.16988 12.4887C1.62927 12.0872 1.62018 10.6481 2.16988 10.2471C2.99402 9.64582 3.90268 10.5665 5.06305 9.49991C4.64054 9.28525 4.2261 8.98445 3.82312 8.75272C3.34213 8.79445 2.94318 8.99128 2.27321 8.85946L1.75657 8.21901C1.74655 7.78945 1.78119 7.36003 1.8599 6.93811L2.58319 6.29766C4.56542 6.26916 3.82973 7.03418 4.44308 8.11227C4.841 8.50604 5.5148 8.81473 6.19965 9.07294C6.75958 8.77502 7.29027 8.572 7.85289 8.32575C9.88059 7.43819 12.2087 6.81183 14.5692 6.19092C15.9811 6.01309 17.2956 5.86899 18.8056 5.76395ZM69.2294 5.65721C72.9273 5.62988 76.079 5.98982 78.9422 6.93811C79.5049 7.12448 82.3327 8.31337 82.7653 8.21901C83.1373 8.13788 83.6159 7.8326 84.0053 7.6853C85.0385 7.29409 85.5277 7.20379 86.5884 6.93811C87.8317 6.62674 89.4081 6.6957 91.0315 6.51114C93.2906 6.25432 97.5656 5.52763 100.951 5.87069C104.047 6.18441 106.398 6.76081 107.977 7.25833C108.824 7.52519 110.363 8.16788 112.524 8.9662C113.223 8.33642 114.104 8.60328 114.074 7.15159C114.156 7.04261 114.11 7.12234 114.177 6.93811C114.418 6.72463 114.659 6.51114 114.9 6.29766C116.189 6.25165 116.7 6.78173 116.657 8.11227C116.384 8.38115 116.091 8.68483 115.83 8.9662C115.373 8.98092 114.918 8.90855 114.487 8.75272C114.181 9.12727 113.575 9.1515 113.35 9.60665C113.78 9.70613 114.173 9.92801 114.487 10.2471C114.835 10.1436 115.42 9.85813 115.83 10.1404C117.357 10.6228 116.454 12.0617 115.83 12.7022C115.026 12.7412 114.488 12.6364 114.28 12.0617C114.053 11.8061 114.059 11.4077 114.074 10.8875C113.328 10.6933 113.286 10.4974 112.11 10.0336C110.819 10.6278 109.574 11.037 108.287 11.528C103.487 13.3588 96.7638 13.8443 91.1349 12.4887H89.3783L86.7951 12.1684C85.693 11.8482 84.7974 11.528 83.6953 11.2078C83.4783 11.1242 82.886 10.8128 82.662 10.7808C82.1902 10.7131 81.4077 11.2711 81.0088 11.4213C79.6945 11.9158 78.3087 12.2626 76.979 12.5954C74.6411 13.1806 70.764 13.3533 68.0928 13.1291C67.0188 13.0389 65.645 12.782 65.5096 12.1684C65.5654 11.9957 65.6001 11.8164 65.613 11.6347C65.661 11.4826 65.7307 11.3387 65.8196 11.2078C69.5881 12.4412 73.2946 11.8279 76.669 10.6741C77.4779 10.3975 78.8905 9.89485 79.7688 9.49991C78.6483 9.10133 77.503 8.64843 76.5657 8.32575C74.9688 7.77603 73.2564 7.48089 71.5026 7.25833C67.6826 6.77351 66.1399 7.82684 65.8196 7.6853C65.5591 7.52924 65.6652 7.50843 65.5613 7.1659C65.5107 6.96725 65.553 7.11455 65.4063 6.61788C66.0749 6.31253 66.7659 6.06268 67.4729 5.87069C68.032 5.72841 68.4545 5.71528 69.2294 5.65721ZM19.8389 6.51114C19.048 6.51306 18.5259 6.51776 17.8757 6.61788C16.8022 6.78312 15.2259 6.79262 14.2592 7.25833C14.6258 7.51163 14.6855 7.77358 14.6725 8.43249C15.2852 8.59677 15.5162 8.96289 16.2224 9.07294C17.4035 8.14536 19.8989 7.59991 21.4921 7.15159C22.2138 6.94878 23.2996 6.83286 23.972 6.72463C22.6977 6.65343 21.1131 6.58234 19.8389 6.51114ZM95.9912 6.61788C95.6552 6.65172 94.5941 6.72868 94.338 6.83137C96.3446 6.81653 99.3701 7.75543 100.951 8.43249C101.455 8.64822 101.846 8.96428 102.501 9.07294C102.828 8.76585 103.542 8.59805 103.637 8.32575C103.553 7.8721 103.846 7.51355 104.051 7.15159C103.878 7.15159 102.88 6.93811 102.708 6.93811C101.736 6.64233 97.9499 6.61426 95.9912 6.61788ZM44.1208 6.72463C43.1558 6.94878 42.6123 7.08146 41.951 7.25833C40.7337 7.58368 40.1829 7.73141 39.0578 8.11227C38.4172 8.32917 37.4562 8.48319 36.8879 8.75272C36.9568 8.75272 37.2323 8.85946 37.3012 8.85946C37.7891 9.25632 38.5102 8.86618 39.0578 8.64597C40.2289 8.17514 41.2696 7.84189 42.5857 7.42047C43.3649 7.17091 47.1911 6.63987 47.944 6.4044C47.7373 6.4044 44.3275 6.72463 44.1208 6.72463ZM72.9492 6.72463C73.6985 7.20261 75.3372 7.16227 76.2557 7.47182C77.7044 7.96027 79.4149 8.7129 80.6563 9.14969C80.7319 9.08383 81.1823 8.90931 81.3187 8.64597C80.6077 8.5593 79.9631 8.20994 79.3555 8.00552C77.4336 7.35867 75.2233 6.80575 72.9492 6.72463ZM25.1086 7.25833L22.3187 7.6853C20.4552 8.22264 18.5632 8.71397 16.9457 9.49991V9.60665C17.7648 9.96722 20.2247 10.7603 21.8021 11.2078C25.267 12.1908 28.0473 11.5072 30.6883 10.3538C31.3691 10.0566 32.1153 9.94513 32.6515 9.49991C30.394 8.44156 28.3337 7.30519 25.1086 7.25833ZM91.6515 7.25833C90.9206 7.37137 90.1187 7.63994 89.3783 7.89878C88.1607 8.32447 86.8849 8.93535 85.7618 9.49991V9.60665C86.4291 9.72076 86.8731 10.119 87.4151 10.3538C88.7559 10.9262 90.1378 11.3901 91.5482 11.7415C93.5775 12.2499 98.0939 10.7882 99.4011 10.2471C100.09 9.96188 100.836 9.93755 101.364 9.49991C98.6132 8.25551 95.5319 7.31694 91.6515 7.25833ZM30.0683 7.36508C30.1738 7.45047 30.0966 7.40297 30.275 7.47182C30.1695 7.38642 30.2466 7.43392 30.0683 7.36508ZM30.3783 7.47182C30.8594 7.85224 33.3502 8.92179 34.0981 8.9662C34.2834 8.78794 34.5238 8.71525 34.8214 8.64597V8.53923C33.3231 8.35446 32.101 7.57856 30.3783 7.47182ZM85.6585 7.79204C84.4709 8.22691 84.7705 8.01182 83.5919 8.64597C83.6609 8.64597 83.9894 8.90568 84.5219 8.9662C85.5086 8.69337 86.9391 7.85374 87.9317 7.57856V7.47182C87.7595 7.47182 85.8307 7.79204 85.6585 7.79204ZM12.5026 7.57856C11.1857 7.9291 8.1451 8.82018 7.1296 9.49991C8.81776 10.3681 10.7142 11.1207 12.7093 11.4213C12.3951 9.39167 14.1455 10.4145 15.1891 9.39317C14.8531 9.31642 14.6116 9.02469 14.3625 8.9662C13.6779 8.80545 13.3032 9.41537 12.7093 8.43249C12.5463 8.1919 12.6217 7.82406 12.7093 7.57856H12.5026ZM105.704 7.57856C105.825 7.92547 105.779 8.28433 105.704 8.64597C105.463 8.82381 105.221 9.00185 104.981 9.17968C104.264 9.40544 103.723 8.59111 103.224 9.60665C103.539 9.69087 103.748 9.97042 103.947 10.0336C104.224 10.1217 104.422 9.8449 104.567 9.82013C104.892 9.76495 105.116 9.96957 105.394 10.0336C105.653 10.4536 105.922 10.7737 105.704 11.4213H105.911C107.754 10.8183 109.802 10.3119 111.077 9.39317C110.061 8.92137 109.808 8.87632 109.217 8.64597L105.704 7.57856ZM58.8967 8.53923C58.6715 8.78154 58.5071 8.80683 58.38 9.17968C57.9064 9.83465 58.7305 10.6385 59.31 10.5673C59.9234 10.4919 60.1949 9.89122 60.1366 9.07294L59.5166 8.53923H58.8967ZM35.958 9.07294L35.028 9.49991V9.60665C35.464 9.67592 35.8056 9.92687 36.0613 9.82013C36.4197 9.7515 36.6392 9.70005 36.7846 9.39317C36.3892 9.34161 36.245 9.21758 35.958 9.07294ZM82.352 9.07294C82.1666 9.2512 81.9263 9.32389 81.6287 9.39317V9.60665C81.6976 9.60665 81.8698 9.82013 81.9387 9.82013C82.197 9.9843 83.0215 9.9162 83.282 9.39317C82.872 9.34748 82.6479 9.21843 82.352 9.07294ZM15.9124 9.92687C15.6499 10.1567 14.4621 10.4615 14.5692 10.8875C14.6635 11.5453 14.2711 11.6608 14.1559 11.8482C16.4313 12.31 19.0846 12.6663 21.5954 12.4887C22.4461 12.4285 23.376 12.3819 24.0753 12.2752C22.3479 12.2706 19.624 11.2346 17.669 10.5673C17.0904 10.3696 16.616 10.0531 15.9124 9.92687ZM37.6112 9.92687C37.4511 10.0793 37.2109 10.153 36.9912 10.2471V10.3538C38.1795 10.4975 39.3278 11.0664 40.4011 11.4213C41.3827 11.7455 42.1385 11.9004 43.1909 12.1684C43.6796 12.2929 46.2081 12.68 46.704 12.3819C43.2695 12.009 39.8772 10.5132 37.6112 9.92687ZM80.3888 9.92687C79.4127 10.7945 76.5201 11.4146 75.1191 11.8482C74.4763 12.0472 73.5671 11.9175 73.0525 12.2752C75.2047 12.3037 77.335 11.5735 79.0455 10.9943C79.8183 10.7327 80.7492 10.725 81.3187 10.2471C80.9937 10.0882 80.8632 9.96957 80.3888 9.92687ZM102.191 9.92687C100.913 10.607 98.5504 11.3022 97.0245 11.7415C96.4562 11.9049 95.7336 12.0766 94.338 12.2752C97.54 12.4959 95.2968 12.3819 98.6778 12.3819C99.7472 12.3819 103.104 12.127 104.051 11.7415C103.94 11.4573 103.783 10.9133 103.637 10.6741C103.239 10.2809 102.735 10.0206 102.191 9.92687ZM33.5814 10.0336C33.0609 10.5255 31.2637 11.2266 30.4816 11.4213V11.528H30.9983C32.0875 10.8212 33.8561 11.1544 34.8214 10.3538C34.311 10.2791 34.1487 10.0883 33.5814 10.0336ZM84.5219 9.92687C84.3365 10.1051 83.8895 10.2846 83.5919 10.3538C83.6974 10.4392 83.6203 10.3917 83.7986 10.4606C84.1982 10.7828 88.2705 12.0014 88.7583 11.7415C87.7919 11.4141 85.5579 10.2791 84.5219 9.92687ZM30.1716 11.528C30.2771 11.6134 30.1999 11.5659 30.3783 11.6347C30.2728 11.5493 30.35 11.5968 30.1716 11.528Z" fill="black"/>
</g>
</svg>
